img/controls.svg

<?xml version="1.0" encoding="UTF-8" standalone="no"?><!DOCTYPE svg PUBLIC "-//W3C//DTD SVG 1.1//EN" "http://www.w3.org/Graphics/SVG/1.1/DTD/svg11.dtd"><svg width="100%" height="100%" viewBox="0 0 102 10" version="1.1" xmlns="http://www.w3.org/2000/svg" xmlns:xlink="http://www.w3.org/1999/xlink" xml:space="preserve" xmlns:serif="http://www.serif.com/" style="fill-rule:evenodd;clip-rule:evenodd;stroke-linejoin:round;stroke-miterlimit:2;"><rect id="minimize" x="0" y="4.5" width="10" height="1"/><path id="maximize" d="M55.5,10l-10,0l0,-10l10,0l0,10Zm-9,-9l0,8l8,0l0,-8l-8,0Z"/><path id="close" d="M97,4.293l4.182,-4.182l0.707,0.707l-4.182,4.182l4.182,4.182l-0.707,0.707l-4.182,-4.182l-4.182,4.182l-0.707,-0.707l4.182,-4.182l-4.182,-4.182l0.707,-0.707l4.182,4.182Z"/></svg>

<svg xmlns="http://www.w3.org/2000/svg" viewBox="0 0 102 10"  fill-rule="evenodd" stroke-linejoin="round" stroke-miterlimit="2" xmlns:v="https://vecta.io/nano"><path d="M0 4.5h10v1H0zM55.5 10h-10V0h10v10zm-9-9v8h8V1h-8zM97 4.293L101.182.1l.707.707L97.707 5l4.182 4.182-.707.707L97 5.707 92.818 9.9l-.707-.707L96.293 5 92.1.818l.707-.707L97 4.293z"/></svg>
